azure-patterns/svg-wrench-gear.svg

<svg xmlns="http://www.w3.org/2000/svg" viewBox="0 0 156 157">
                                
                            
<path d="M148.225 85.4804V70.648H132.922C131.659 61.0899 127.895 52.027 122.027 44.3508L132.848 33.5299L122.373 23.0556L111.553 33.8766C103.876 28.008 94.8135 24.2442 85.2554 22.9813V7.67847H70.423V22.9813C60.8649 24.2442 51.802 28.008 44.1259 33.8766L33.3049 23.0556L22.8306 33.5299L33.6516 44.3508C27.783 52.027 24.0192 61.0899 22.7563 70.648H7.42871V85.4804H22.7316C24.3659 97.5394 29.9125 108.757 38.5297 117.374C47.1468 125.991 58.3392 131.538 70.423 133.172V148.475H85.2554V133.172C94.8135 131.909 103.876 128.145 111.553 122.277L122.373 133.098L132.848 122.623L122.027 111.802C127.895 104.126 131.659 95.0632 132.922 85.5051H148.225V85.4804ZM37.0687 78.0766C37.0687 68.6423 40.3373 59.5051 46.3297 52.2251C52.322 44.9451 60.642 39.9432 69.8782 38.1108C79.1144 36.2785 88.722 37.6899 97.042 42.147C105.362 46.5794 111.874 53.7851 115.49 62.5013C119.105 71.2175 119.575 80.8994 116.827 89.9375C114.078 98.9509 108.309 106.751 100.459 112C92.6097 117.25 83.2001 119.602 73.8154 118.661C64.4306 117.745 55.6649 113.585 48.9792 106.924C45.1906 103.16 42.1697 98.6537 40.1144 93.7013C38.1087 88.7242 37.0439 83.4251 37.0687 78.0766Z" fill="#50E6FF"></path>
<path d="M91.9905 80.4786L75.0533 63.5414L90.3067 48.2881C84.6362 45.9357 78.3714 45.2919 72.3295 46.4557C66.2876 47.6195 60.7162 50.5167 56.3086 54.8252C51.901 59.109 48.8553 64.6062 47.5429 70.6233C46.2305 76.6405 46.7257 82.9052 48.9295 88.6252L15.2533 122.301C12.8762 124.679 11.5391 127.922 11.5391 131.29C11.5391 134.658 12.8762 137.877 15.2533 140.279C17.6305 142.656 20.8743 143.993 24.2419 143.993C27.6095 143.993 30.8286 142.656 33.2305 140.279L66.9067 106.602C72.6514 108.831 78.8914 109.301 84.9086 107.989C90.9257 106.677 96.3981 103.631 100.707 99.2233C104.99 94.8157 107.912 89.2443 109.076 83.2271C110.24 77.1852 109.596 70.9452 107.244 65.25L91.9905 80.4786ZM28.7733 135.747C27.8819 136.639 26.7429 137.233 25.5295 137.48C24.2914 137.728 23.0286 137.604 21.8648 137.109C20.701 136.639 19.7105 135.821 19.0172 134.781C18.3238 133.741 17.9524 132.503 17.9524 131.265C17.9524 130.002 18.3238 128.789 19.0172 127.749C19.7105 126.709 20.701 125.892 21.8648 125.421C23.0286 124.951 24.2914 124.827 25.5295 125.05C26.7676 125.298 27.8819 125.892 28.7733 126.783C29.9619 127.972 30.6305 129.581 30.6305 131.265C30.6305 132.949 29.9619 134.559 28.7733 135.747Z" fill="#0078D4"></path>
</svg>

<svg xmlns="http://www.w3.org/2000/svg" viewBox="0 0 156 157"><path d="M148.225 85.48V70.648h-15.303a55.224 55.224 0 0 0-10.895-26.297l10.821-10.821-10.475-10.474-10.82 10.82a55.223 55.223 0 0 0-26.298-10.895V7.678H70.423v15.303a55.217 55.217 0 0 0-26.297 10.896L33.305 23.056 22.83 33.53l10.82 10.82a55.218 55.218 0 0 0-10.895 26.298H7.43V85.48h15.303a55.7 55.7 0 0 0 15.798 31.894 55.623 55.623 0 0 0 31.893 15.798v15.303h14.832v-15.303a55.23 55.23 0 0 0 26.298-10.895l10.82 10.821 10.475-10.475-10.821-10.821a55.223 55.223 0 0 0 10.895-26.297h15.303v-.025zM37.069 78.077a40.666 40.666 0 0 1 9.26-25.852c5.993-7.28 14.313-12.282 23.55-14.114a40.744 40.744 0 0 1 27.163 4.036c8.32 4.432 14.832 11.638 18.448 20.354a40.671 40.671 0 0 1 1.337 27.437A40.869 40.869 0 0 1 100.459 112a40.612 40.612 0 0 1-26.644 6.661c-9.384-.916-18.15-5.076-24.836-11.737a40.592 40.592 0 0 1-8.865-13.223c-2.005-4.977-3.07-10.276-3.045-15.624z" fill="#50E6FF"/><path d="M91.99 80.479L75.053 63.54l15.254-15.253a31.447 31.447 0 0 0-33.998 6.537 31.337 31.337 0 0 0-8.766 15.798 31.456 31.456 0 0 0 1.386 18.002l-33.676 33.676a12.728 12.728 0 0 0-3.714 8.989 12.77 12.77 0 0 0 3.714 8.989 12.727 12.727 0 0 0 8.989 3.714 12.77 12.77 0 0 0 8.988-3.714l33.677-33.677a31.263 31.263 0 0 0 18.002 1.387 31.437 31.437 0 0 0 15.798-8.766 31.611 31.611 0 0 0 8.369-15.996 31.47 31.47 0 0 0-1.832-17.977L91.99 80.479zm-63.217 55.268a6.391 6.391 0 0 1-3.244 1.733 6.197 6.197 0 0 1-3.664-.371 6.24 6.24 0 0 1-2.848-2.328 6.374 6.374 0 0 1-1.065-3.516 6.314 6.314 0 0 1 3.913-5.844 6.62 6.62 0 0 1 3.665-.371 6.335 6.335 0 0 1 3.244 10.697z" fill="#0078D4"/></svg>
